src/resources/facebook-icon.svg

<svg fill="none" height="40" viewBox="0 0 40 40" width="40" xmlns="http://www.w3.org/2000/svg"><circle cx="20" cy="20" fill="#4e6297" r="20"/><path d="m29 13.8186c0-1.4974-1.3212-2.8186-2.8187-2.8186h-11.3627c-1.4974 0-2.8186 1.3212-2.8186 2.8186v11.3627c0 1.4974 1.3212 2.8187 2.8186 2.8187h5.7254v-6.4301h-2.1139v-2.8186h2.1139v-1.1451c0-1.9378 1.4094-3.6114 3.171-3.6114h2.2902v2.8187h-2.2902c-.2642 0-.5285.2642-.5285.7927v1.1451h2.8187v2.8186h-2.8187v6.4301h2.9948c1.4975 0 2.8187-1.3213 2.8187-2.8187z" fill="#fff"/></svg>

<svg width="40" height="40" viewBox="0 0 40 40" fill="none" xmlns="http://www.w3.org/2000/svg">
<circle cx="20" cy="20" r="20" fill="#4E6297"/>
<path d="M29 13.8186C29 12.3212 27.6788 11 26.1813 11H14.8186C13.3212 11 12 12.3212 12 13.8186V25.1813C12 26.6787 13.3212 28 14.8186 28H20.544V21.5699H18.4301V18.7513H20.544V17.6062C20.544 15.6684 21.9534 13.9948 23.715 13.9948H26.0052V16.8135H23.715C23.4508 16.8135 23.1865 17.0777 23.1865 17.6062V18.7513H26.0052V21.5699H23.1865V28H26.1813C27.6788 28 29 26.6787 29 25.1813V13.8186Z" fill="white"/>
</svg>
